X:1
T:Title
%%score { ( 1 4 ) | ( 2 3 ) }
L:1/8
M:6/8
K:F
V:1 treble nm="Grand Piano"
V:4 treble 
V:2 bass 
V:3 bass 
V:1
 z3 z2[Q:1/4=87] F | A2 A c2 F | [B,EG]F[CEG] [CFA]2 [CFA] | F-[Fc][Fd] cA[A,F] | %4
[M:5/8] E3- [Ec]2 |[M:1/8] [Ec] |[M:3/4] c2 AA GF | fe [Fd] c2 c/c/ | [Ec]2 [Fc][GB] [FA][EG] | %9
[M:5/8] F-F- F3 |[M:1/8] A |[M:3/4] c->[Ec-] [Ec]2 B[CEG] | A6 | [FA][Fd] [Af][Ge] d[E^c] | %14
[M:5/8] [Fd]-[Fd]- [Fd]3 |[M:1/8] [Gc] |[M:3/4] c2 AA GF | fe [Fd] c2 c/c/ | %18
 [Ec]2 [Fc][GB] A[B,EG] |[M:5/8] [A,F]-[A,F]- [A,F]3 |] %20
V:2
 z3 z2 [F,A,] | [F,CF]2 [F,CF] [F,A,F]2 [F,A,] | z A,C, F,2 _E, | z3 .A,3 |[M:5/8] z z2 G,2 | %5
[M:1/8] [C,B,] |[M:3/4] z2 z C z2 | .D2 z2 z2 | [C,G,]2 [C,A,] [C,C]2 [C,B,] | %9
[M:5/8] [F,A,]-[F,A,]- [F,A,]3 |[M:1/8] [F,F] |[M:3/4] z2 z G, z2 | [F,CF]2 [F,C] [F,C]2 [F,CF] | %13
 z2 z .A,3 |[M:5/8] [D,A,]-[D,A,]- [D,A,]3 |[M:1/8] C/ z/ |[M:3/4] z2 z C z2 | .D2 z2 z2 | %18
 [C,G,]2 .[C,A,]2 FC, |[M:5/8] F,-F,- F,3 |] %20
V:3
 x6 | x6 | .C,3 z3 | D,[C,A,][B,,B,] [F,F]-[F,CF]F, |[M:5/8] C,-C,- C,3 |[M:1/8] x | %6
[M:3/4] [F,A,F]2 [F,CF][F,F]- [F,B,F][F,A,] | [B,,F]-[B,,CF] [B,,B,] [F,A,F]2 [F,A,F]/[F,A,F]/ | %8
 x6 |[M:5/8] x5 |[M:1/8] x |[M:3/4] [C,G,]>[C,G,] [C,G,]C,- [C,C]C, | x6 | %13
 [D,D][D,A,] .[D,A,]2 F[A,,A,] |[M:5/8] x5 |[M:1/8] E, | %16
[M:3/4] [F,A,F]2 [F,CF][F,F]- [F,B,F][F,A,] | [B,,F]-[B,,CF] [B,,B,] [F,A,F]2 [F,A,F]/[F,A,F]/ | %18
 z2 z .[C,C]3 |[M:5/8] x5 |] %20
V:4
 x6 | x6 | x6 | .[B,B]3 z3 |[M:5/8] [CG]3 z2 |[M:1/8] x |[M:3/4] x6 | x6 | x6 |[M:5/8] x5 | %10
[M:1/8] x |[M:3/4] E2 z .E3 | z2 F F2 A | x6 |[M:5/8] x5 |[M:1/8] z/ B,/ |[M:3/4] x6 | x6 | x6 | %19
[M:5/8] x5 |] %20

